svgs/thin/mobile-notch.svg

<svg xmlns="http://www.w3.org/2000/svg" viewBox="0 0 384 512"><!-- Font Awesome Pro 6.0.0-alpha2 by @fontawesome - https://fontawesome.com License - https://fontawesome.com/license (Commercial License) --><path d="M240 440H144C139.594 440 136 443.578 136 448S139.594 456 144 456H240C244.406 456 248 452.422 248 448S244.406 440 240 440ZM304 0H80C53.5 0 32 21.5 32 48V464C32 490.5 53.5 512 80 512H304C330.5 512 352 490.5 352 464V48C352 21.5 330.5 0 304 0ZM144 16H240V40C240 44.406 236.406 48 232 48H152C147.594 48 144 44.406 144 40V16ZM336 464C336 481.645 321.645 496 304 496H80C62.355 496 48 481.645 48 464V48C48 30.355 62.355 16 80 16H128V40C128 53.234 138.766 64 152 64H232C245.234 64 256 53.234 256 40V16H304C321.645 16 336 30.355 336 48V464Z"/></svg>

<svg xmlns="http://www.w3.org/2000/svg" viewBox="0 0 384 512"><!--! Font Awesome Pro 6.0.0-alpha3 by @fontawesome - https://fontawesome.com License - https://fontawesome.com/license (Commercial License) --><path d="M240 440h-96c-4.406 0-8 3.578-8 8s3.594 8 8 8h96c4.406 0 8-3.578 8-8S244.4 440 240 440zM304 0h-224C53.5 0 32 21.5 32 48v416C32 490.5 53.5 512 80 512h224c26.5 0 48-21.5 48-48v-416C352 21.5 330.5 0 304 0zM144 16h96v24c0 4.406-3.594 8-8 8h-80C147.6 48 144 44.41 144 40V16zM336 464c0 17.64-14.36 32-32 32h-224c-17.64 0-32-14.36-32-32v-416c0-17.64 14.36-32 32-32H128v24C128 53.23 138.8 64 152 64h80C245.2 64 256 53.23 256 40V16h48c17.64 0 32 14.36 32 32V464z"/></svg>
